static/assets/template/assets/img/icons/essential/detailed/Dollar_Bills.svg

<svg height="120" viewBox="0 0 151 120" width="151" xmlns="http://www.w3.org/2000/svg"><g fill="none" fill-rule="evenodd" transform="translate(2 2)"><path d="m134.2 59.4-105.3 37.2c-3.2 1.1-6.7-.5-7.9-3.8l-15.6-44c-1.1-3.2.5-6.7 3.8-7.9l105.3-37.2c3.2-1.1 6.7.5 7.9 3.8l15.6 44c1.1 3.2-.6 6.7-3.8 7.9z" fill-rule="nonzero"/><g stroke-linecap="round" stroke-linejoin="round" stroke-width="3"><path d="m134.2 59.4-109 38.5c-3.2 1.1-6.7-.5-7.9-3.8l-16.7-47.3c-1.1-3.2.5-6.7 3.8-7.9l109-38.5c3.2-1.1 6.7.5 7.9 3.8l16.7 47.3c1.1 3.2-.6 6.7-3.8 7.9z"/><path d="m32.2 86.8c-1.1-3.1-4.4-4.7-7.5-3.6-1.4-4.1-10.1-28.5-11.5-32.4 3.1-1.1 4.7-4.4 3.6-7.5l91.6-32.4c1.1 3.1 4.4 4.7 7.5 3.6 1.4 3.9 10 28.3 11.5 32.4-3.1 1.1-4.7 4.4-3.6 7.5-8.8 3.1-59.9 21.2-82.3 29.1"/><path d="m58.2 55.2c-.3-.6-.5-1.2-.7-1.8-3.1-8.8.5-18.1 8.2-20.8 3.4-1.2 7.1-.9 10.4.7"/><path d="m81.3 37.3c1.6 1.8 2.9 3.9 3.8 6.4 3.1 8.8-.5 18.1-8.2 20.8-5.1 1.8-10.8.2-14.8-3.8"/><path d="m45.5 57.3-7.9 2.7"/><path d="m97.6 38.8 7.5-2.6"/></g><g transform="translate(14 51)"><path d="m127.1 64.9h-120c-3.4 0-6.2-2.8-6.2-6.2v-52.4c0-3.4 2.8-6.2 6.2-6.2h120c3.4 0 6.2 2.8 6.2 6.2v52.4c0 3.5-2.8 6.2-6.2 6.2z" fill-rule="nonzero"/><path d="m127.1 64.9h-116c-3.4 0-6.2-2.8-6.2-6.2v-48.7c0-3.4 2.8-6.2 6.2-6.2h116c3.4 0 6.2 2.8 6.2 6.2v48.7c0 3.5-2.8 6.2-6.2 6.2z" fill-rule="nonzero"/><g stroke-linecap="round" stroke-linejoin="round" stroke-width="3"><path d="m120.2.2h6.1c3.9 0 7 3.1 7 7v50.7c0 3.9-3.1 7-7 7h-118.4c-3.9 0-7-3.1-7-7v-40.7"/><path d="m113.6.2h.5"/><path d="m11.7.2h89.5"/></g></g><path d="m31.9 59.9c0 3.4-2.7 6.1-6.1 6.1v35.5c3.4 0 6.1 2.7 6.1 6.1h100.6c0-3.4 2.7-6.1 6.1-6.1 0-4.3 0-31.1 0-35.5-3.4 0-6.1-2.7-6.1-6.1-9.6 0-65.7 0-90.4 0" stroke-linecap="round" stroke-linejoin="round" stroke-width="3"/><path d="m68.2 85.7c-.1-.7-.1-1.3-.1-2 0-9.7 6.8-17.5 15.2-17.5 3.8 0 7.2 1.6 9.9 4.2" stroke-linecap="round" stroke-linejoin="round" stroke-width="3"/><path d="m97 76.2c.9 2.3 1.5 4.8 1.5 7.6 0 9.7-6.8 17.5-15.2 17.5-5.6 0-10.5-3.5-13.2-8.8" stroke-linecap="round" stroke-linejoin="round" stroke-width="3"/><path d="m55.1 83.3h-8.7" stroke-linecap="round" stroke-linejoin="round" stroke-width="3"/><path d="m112.3 83.3h8.2" stroke-linecap="round" stroke-linejoin="round" stroke-width="3"/><path d="m14.9 60.3v-2.6c0-2.9 1.9-5.3 4.5-6.1" stroke-linecap="round" stroke-linejoin="round" stroke-width="3"/></g></svg>

<?xml version="1.0" encoding="UTF-8"?>
<svg width="151px" height="120px" viewBox="0 0 151 120" version="1.1" xmlns="http://www.w3.org/2000/svg" xmlns:xlink="http://www.w3.org/1999/xlink">
    <!-- Generator: Sketch 51.2 (57519) - http://www.bohemiancoding.com/sketch -->
    <title>Dollar_Bills</title>
    <desc>Created with Sketch.</desc>
    <defs></defs>
    <g id="Page-1" stroke="none" stroke-width="1" fill="none" fill-rule="evenodd">
        <g id="Dollar_Bills" transform="translate(2.000000, 2.000000)">
            <g id="Group">
                <g id="Shape">
                    <path d="M134.2,59.4 L28.9,96.6 C25.7,97.7 22.2,96.1 21,92.8 L5.4,48.8 C4.3,45.6 5.9,42.1 9.2,40.9 L114.5,3.7 C117.7,2.6 121.2,4.2 122.4,7.5 L138,51.5 C139.1,54.7 137.4,58.2 134.2,59.4 Z" class="fill-primary-200" fill-rule="nonzero"></path>
                    <path d="M134.2,59.4 L25.2,97.9 C22,99 18.5,97.4 17.3,94.1 L0.6,46.8 C-0.5,43.6 1.1,40.1 4.4,38.9 L113.4,0.4 C116.6,-0.7 120.1,0.9 121.3,4.2 L138,51.5 C139.1,54.7 137.4,58.2 134.2,59.4 Z" class="stroke-primary-400" stroke-width="3" stroke-linecap="round" stroke-linejoin="round"></path>
                </g>
                <path d="M32.2,86.8 C31.1,83.7 27.8,82.1 24.7,83.2 C23.3,79.1 14.6,54.7 13.2,50.8 C16.3,49.7 17.9,46.4 16.8,43.3 L108.4,10.9 C109.5,14 112.8,15.6 115.9,14.5 C117.3,18.4 125.9,42.8 127.4,46.9 C124.3,48 122.7,51.3 123.8,54.4 C115,57.5 63.9,75.6 41.5,83.5" id="Shape" class="stroke-primary-400" stroke-width="3" stroke-linecap="round" stroke-linejoin="round"></path>
                <path d="M58.2,55.2 C57.9,54.6 57.7,54 57.5,53.4 C54.4,44.6 58,35.3 65.7,32.6 C69.1,31.4 72.8,31.7 76.1,33.3" id="Shape" class="stroke-primary-400" stroke-width="3" stroke-linecap="round" stroke-linejoin="round"></path>
                <path d="M81.3,37.3 C82.9,39.1 84.2,41.2 85.1,43.7 C88.2,52.5 84.6,61.8 76.9,64.5 C71.8,66.3 66.1,64.7 62.1,60.7" id="Shape" class="stroke-primary-400" stroke-width="3" stroke-linecap="round" stroke-linejoin="round"></path>
                <path d="M45.5,57.3 L37.6,60" id="Shape" class="stroke-primary-400" stroke-width="3" stroke-linecap="round" stroke-linejoin="round"></path>
                <path d="M97.6,38.8 L105.1,36.2" id="Shape" class="stroke-primary-400" stroke-width="3" stroke-linecap="round" stroke-linejoin="round"></path>
            </g>
            <g id="Group" transform="translate(14.000000, 51.000000)">
                <path d="M127.1,64.9 L7.1,64.9 C3.7,64.9 0.9,62.1 0.9,58.7 L0.9,6.3 C0.9,2.9 3.7,0.1 7.1,0.1 L127.1,0.1 C130.5,0.1 133.3,2.9 133.3,6.3 L133.3,58.7 C133.3,62.2 130.5,64.9 127.1,64.9 Z" id="Shape" class="fill-neutral" fill-rule="nonzero"></path>
                <path d="M127.1,64.9 L11.1,64.9 C7.7,64.9 4.9,62.1 4.9,58.7 L4.9,10 C4.9,6.6 7.7,3.8 11.1,3.8 L127.1,3.8 C130.5,3.8 133.3,6.6 133.3,10 L133.3,58.7 C133.3,62.2 130.5,64.9 127.1,64.9 Z" id="Shape" class="fill-primary-300" fill-rule="nonzero"></path>
                <path d="M120.2,0.2 L126.3,0.2 C130.2,0.2 133.3,3.3 133.3,7.2 L133.3,57.9 C133.3,61.8 130.2,64.9 126.3,64.9 L7.9,64.9 C4,64.9 0.9,61.8 0.9,57.9 L0.9,17.2" id="Shape" class="stroke-primary" stroke-width="3" stroke-linecap="round" stroke-linejoin="round"></path>
                <path d="M113.6,0.2 L114.1,0.2" id="Shape" class="stroke-primary" stroke-width="3" stroke-linecap="round" stroke-linejoin="round"></path>
                <path d="M11.7,0.2 L101.2,0.2" id="Shape" class="stroke-primary" stroke-width="3" stroke-linecap="round" stroke-linejoin="round"></path>
            </g>
            <path d="M31.9,59.9 C31.9,63.3 29.2,66 25.8,66 C25.8,70.5 25.8,97.3 25.8,101.5 C29.2,101.5 31.9,104.2 31.9,107.6 L132.5,107.6 C132.5,104.2 135.2,101.5 138.6,101.5 C138.6,97.2 138.6,70.4 138.6,66 C135.2,66 132.5,63.3 132.5,59.9 C122.9,59.9 66.8,59.9 42.1,59.9" id="Shape" class="stroke-primary" stroke-width="3" stroke-linecap="round" stroke-linejoin="round"></path>
            <path d="M68.2,85.7 C68.1,85 68.1,84.4 68.1,83.7 C68.1,74 74.9,66.2 83.3,66.2 C87.1,66.2 90.5,67.8 93.2,70.4" id="Shape" class="stroke-primary" stroke-width="3" stroke-linecap="round" stroke-linejoin="round"></path>
            <path d="M97,76.2 C97.9,78.5 98.5,81 98.5,83.8 C98.5,93.5 91.7,101.3 83.3,101.3 C77.7,101.3 72.8,97.8 70.1,92.5" id="Shape" class="stroke-primary" stroke-width="3" stroke-linecap="round" stroke-linejoin="round"></path>
            <path d="M55.1,83.3 L46.4,83.3" id="Shape" class="stroke-primary" stroke-width="3" stroke-linecap="round" stroke-linejoin="round"></path>
            <path d="M112.3,83.3 L120.5,83.3" id="Shape" class="stroke-primary" stroke-width="3" stroke-linecap="round" stroke-linejoin="round"></path>
            <path d="M14.9,60.3 L14.9,57.7 C14.9,54.8 16.8,52.4 19.4,51.6" id="Shape" class="stroke-primary" stroke-width="3" stroke-linecap="round" stroke-linejoin="round"></path>
        </g>
    </g>
</svg>
